X:152
T:Polska efter Nils Olsson
R:sl\"angpolska
H:Uppgavs ha kommit fr{\aa}n Uppland.
A:\"Osterg\"otland
B:SvL \"Ogl 372, efter Nils Olsson, Sj\"ogestad, V{\aa}nga
Z:id:hn-sp-152
M:3/4
L:1/16
K:Gm
G2A2 BABc B2G2 | G2g2 ^fgaf g4 | d2dB e2ec d4 | BcBA G2A2 B2c2 |
dcBA G4 G,4 :||: BdBG BdBG BdBG | ABA^F DFAc B2A2 | BdBG BdBG BdBG |
ABA^F DFAc B2A2 | G2g2 ^f=efa g4 | d2dB _e2ec d4 | BcBA G2A2 B2c2 |
dcBA G4 G,4 :|
<end>
<start>
